public/images/moneyback.svg

<svg width="42" height="40" viewBox="0 0 42 40" fill="none" xmlns="http://www.w3.org/2000/svg">
<path d="M21.92 0.680054C14.4395 0.680054 7.65265 4.99435 4.46163 11.7201H1.68006C1.36201 11.7201 1.06555 11.8854 0.898429 12.1567C0.73132 12.428 0.715147 12.7658 0.857101 13.0515L4.5371 20.4115C4.69343 20.7224 5.01145 20.9201 5.36009 20.9201C5.70872 20.9201 6.02672 20.7224 6.18307 20.4115L9.86307 13.0515C10.005 12.7658 9.99065 12.428 9.82174 12.1567C9.65464 11.8854 9.35816 11.7201 9.04011 11.7201H6.52631C9.55582 6.08873 15.4494 2.52005 21.9202 2.52005C31.5586 2.52005 39.4002 10.3617 39.4002 20.0001C39.4002 29.6384 31.5586 37.4801 21.9202 37.4801C14.7617 37.4801 8.39851 33.1891 5.71257 26.5477C5.5221 26.0769 4.98843 25.8505 4.51404 26.0392C4.04327 26.2296 3.81507 26.7651 4.00551 27.2377C6.97573 34.5779 14.0068 39.3201 21.9202 39.3201C32.5738 39.3201 41.2402 30.6537 41.2402 20.0001C41.2402 9.34645 32.5738 0.680054 21.9202 0.680054H21.92ZM5.36001 17.9425L3.16784 13.5599H7.5504L5.36001 17.9425ZM25.6 21.8399C25.6 23.3619 24.362 24.5999 22.84 24.5999V25.9799C22.84 26.4884 22.4285 26.8999 21.92 26.8999C21.4115 26.8999 21 26.4884 21 25.9799V24.5999H19.62C19.1115 24.5999 18.7 24.1884 18.7 23.6799C18.7 23.1714 19.1115 22.7599 19.62 22.7599H22.84C23.3468 22.7599 23.76 22.3466 23.76 21.8399C23.76 21.3332 23.3467 20.9199 22.84 20.9199H21C19.4781 20.9199 18.24 19.6819 18.24 18.1599C18.24 16.638 19.4781 15.3999 21 15.3999V14.0199C21 13.5114 21.4115 13.0999 21.92 13.0999C22.4285 13.0999 22.84 13.5114 22.84 14.0199V15.3999H24.22C24.7285 15.3999 25.14 15.8114 25.14 16.3199C25.14 16.8284 24.7285 17.2399 24.22 17.2399H21C20.4933 17.2399 20.08 17.6532 20.08 18.1599C20.08 18.6666 20.4933 19.0799 21 19.0799H22.84C24.362 19.0799 25.6 20.318 25.6 21.8399ZM21.92 30.5799C16.0854 30.5799 11.34 25.8346 11.34 19.9999C11.34 14.1653 16.0854 9.41992 21.92 9.41992C27.7547 9.41992 32.5 14.1653 32.5 19.9999C32.5 25.8346 27.7547 30.5799 21.92 30.5799ZM21.92 11.2599C17.1006 11.2599 13.18 15.1807 13.18 19.9999C13.18 24.8191 17.1008 28.7399 21.92 28.7399C26.7393 28.7399 30.66 24.8191 30.66 19.9999C30.66 15.1807 26.7393 11.2599 21.92 11.2599Z" fill="black"/>
</svg>

<svg width="42" height="40" fill="none" xmlns="http://www.w3.org/2000/svg"><path d="M21.92.68A19.325 19.325 0 004.462 11.72H1.68a.919.919 0 00-.823 1.332l3.68 7.36a.922.922 0 001.646 0l3.68-7.36a.919.919 0 00-.823-1.331H6.526A17.482 17.482 0 0121.92 2.52c9.64 0 17.48 7.842 17.48 17.48 0 9.638-7.841 17.48-17.48 17.48A17.413 17.413 0 015.713 26.548a.922.922 0 00-1.707.69c2.97 7.34 10 12.082 17.914 12.082 10.654 0 19.32-8.666 19.32-19.32S32.574.68 21.92.68zM5.36 17.942L3.168 13.56H7.55l-2.19 4.382zM25.6 21.84a2.763 2.763 0 01-2.76 2.76v1.38a.92.92 0 11-1.84 0V24.6h-1.38a.92.92 0 110-1.84h3.22c.507 0 .92-.413.92-.92a.922.922 0 00-.92-.92H21a2.763 2.763 0 01-2.76-2.76A2.763 2.763 0 0121 15.4v-1.38a.92.92 0 111.84 0v1.38h1.38a.92.92 0 110 1.84H21a.922.922 0 00-.92.92c0 .507.413.92.92.92h1.84a2.763 2.763 0 012.76 2.76zm-3.68 8.74c-5.835 0-10.58-4.745-10.58-10.58S16.085 9.42 21.92 9.42 32.5 14.165 32.5 20s-4.745 10.58-10.58 10.58zm0-19.32c-4.82 0-8.74 3.92-8.74 8.74s3.92 8.74 8.74 8.74 8.74-3.92 8.74-8.74-3.92-8.74-8.74-8.74z" fill="#000"/></svg>
